X: 1
T: Derry Down
O: 18th C.
R: jig
Z: 2014 John Chambers <jc:trillian.mit.edu>
M: 6/8
L: 1/8
K: G
B |\
BcB AGF | GFE ^D2D | E>FE GFE |
DEF G2A/G/ | FED D>ED | D>ED d2^d |
eBB c>BA | B>AG A>GF | E3 B2 | A>GF E2 |]
w: | ~ ~ ~ ~ Der-ry down, down, hey der-ry down.
